packages/icons/web/transactions_filled_large.svg

<svg width="24" height="24" viewBox="0 0 24 24" fill="none" xmlns="http://www.w3.org/2000/svg">
<path fill-rule="evenodd" clip-rule="evenodd" d="M5 3C3.89543 3 3 3.89543 3 5V19C3 20.1046 3.89543 21 5 21H19C20.1046 21 21 20.1046 21 19V5C21 3.89543 20.1046 3 19 3H5ZM8 10H16V8H8V10ZM16 13H8V11H16V13ZM8 16H16V14H8V16Z" fill="#212933"/>
</svg>

<svg width="24" height="24" fill="none" xmlns="http://www.w3.org/2000/svg">
    <path fill-rule="evenodd" clip-rule="evenodd" d="M5 3a2 2 0 00-2 2v14a2 2 0 002 2h14a2 2 0 002-2V5a2 2 0 00-2-2H5zm3 7h8V8H8v2zm8 3H8v-2h8v2zm-8 3h8v-2H8v2z" fill="currentColor"/>
</svg>
